X: 09271
M: 2/4
L: 1/16
K: Bb
V: 1 clef=treble middle=B
|:\
[B2D4][BD][cE] [d2F2][B2D2] | [e2G2][c2E2] [c4E4] |\
[BE4C4]AGF [G2E4C4]A2 | [B4D4] [d4F4] |\
[B2D4][BD][cE] [d2F2][B2D2] | [e2G2][c2E2] [c4E4] |\
[BE4C4]AGF [G2E4C4]A2 | [B4D4] [F4D4] :|
|:\
[d2B2][dB][ec] [f2d2][d2B2] | [g2B2][e2G2] [e4c4] |\
[c2A2][cA][dB] [e2c2][c2A2]  | [f2B2][d2B2] [d4B4] |\
[BE4C4]AGF [G2E4C4]A2 | [B4D4] [d4F4] :|
V: 2 clef=bass middle=d
|:\
|:\
b2b2b2b2 | e2e2e2e2 | f2f2f2f2 | d2d2g2g2 |\
g2g2g2g2 | c2c2 e2e2 | f2f2f2f2 | b4 B4 :|

